Sources/FrostedUI/Resources/Icons.xcassets/thumbUpFilled16.imageset/thumb-up-filled-16.svg

<svg width="16" height="16" viewBox="0 0 16 16" fill="none" xmlns="http://www.w3.org/2000/svg" data-fui-icon="true">
  <path
    fill-rule="evenodd"
    clip-rule="evenodd"
    d="M4.1286 6.41671H2.50004C1.71765 6.41671 1.08337 7.05095 1.08337 7.83337V12.8334C1.08337 13.6158 1.71765 14.25 2.50004 14.25H11.6147C12.9738 14.25 14.1289 13.2573 14.3334 11.9137L14.8914 8.24707C15.1447 6.58266 13.8563 5.08337 12.1726 5.08337H9.55343L9.80222 3.48766C9.99956 2.22201 9.01685 1.08337 7.74071 1.08337C7.21135 1.08337 6.72391 1.3787 6.48051 1.85126L4.1286 6.41671ZM3.75004 12.75V7.91671H2.58337V12.75H3.75004Z"
    fill="currentColor"
  />
</svg>

<svg xmlns="http://www.w3.org/2000/svg" width="16" height="16" fill="none" data-fui-icon="true" viewBox="0 0 16 16"><path fill="currentColor" fill-rule="evenodd" d="M4.129 6.417H2.5c-.782 0-1.417.634-1.417 1.416v5c0 .783.635 1.417 1.417 1.417h9.115a2.75 2.75 0 0 0 2.718-2.336l.558-3.667a2.75 2.75 0 0 0-2.718-3.164h-2.62l.25-1.595A2.085 2.085 0 0 0 7.74 1.083c-.53 0-1.017.296-1.26.768zM3.75 12.75V7.917H2.583v4.833z" clip-rule="evenodd"/></svg>
